X: 49
T: The hare in the corn
C: anon.
O: Ireland
B: Francis O'Neill: "The Dance Music of Ireland" (1907) no. 49
R: Double jig
Z: Transcribed by Frank Nordberg - http://www.musicaviva.com
F: http://www.musicaviva.com/abc/tunes/ireland/oneill-1001/oneill-1001-004
9.abc
M: 6/8
L: 1/8
Q: 3/8=128
K: Dmix
B|BAB c2A|BAB c2A|BdB AFD|EFE E2c|BAB c2A|BAB c2A|BdB AFA|DED D2:|
G|F2A AFA|BGB AFA|BdB AFD|EFE E2G|F2A AFA|BGB AFA|BdB AFA|DED D2:|
g|fdd edd|fdd d2A|BdB AFD|EFE E2g|fdd edd|fdB AFA|DFA deg|fdd d2:|
W:
W:
W: From Musica Viva - http://www.musicaviva.com
W: the Internet center for free sheet music downloads.


